X:1
T:Dirge In Woods
T:Dirge In Woods
T:Copyright © CPDL
T:Copyright © CPDL
T:Copyright © CPDL
T:Copyright © CPDL
T:Copyright © CPDL
Z:Copyright © CPDL
%%score 1 ( 2 3 ) ( 4 5 )
L:1/8
Q:1/4=65
M:6/8
K:Emin
V:1 treble nm="P1"
V:2 treble nm="P2"
V:3 treble 
V:4 bass nm="P3"
V:5 bass 
V:1
"^Editor: John Henry Fowler""^(  Revision:   4 - 12 - 2008  )""^Lento.""^From \"English Lyrics\" -  Set 8 -  Number 4" z6 | %1
w: |
"^Words by George Meredith" z6 |"^Charles Hubert Hastings Parry""^( 1848 - 1918 )" z6 | z6 | z6 | %5
w: ||||
 z6 | z6 | z2 z2!mf! z B, | c3 (EF)G | A6- | A2 z (=FG)_A | G3 G2 A | B2 B B3 | B6 | z6 | z6 | %16
w: ||A|wind sways _ the|pines,|_ And _ be-|\-~~low Not a|breath of wild|air;|||
!p! E3 E2 E | E E2- E2 E | E3 C2 D | E3 E2 E |!<(! B3 ^c2!<)! c | d3 ^c2 B |!>(! F3 F2 F!>)! | F6 | %24
w: Still as the|mos- ses _ That|grow On the|floor- ing and|o- ver the|lines Of the|roots here and|there.|
 z2 z2!p! z =F |!<(! B3!<)! d3 |!>(! (2:3:2!tenuto!c!tenuto!B!>)! !tenuto!A3 | %27
w: The|pine- tree|drops its dead;|
 z2!p! z"^sostenuto" (2:3:2CD | E3 =F2"^cresc." F | G3 A2 A |!<(! c6-!<)! | c3 z2!f! z | %32
w: They are|qui- et, as|un- der the|sea|_|
"^Più mosso." e2 e B3 | c2 c G3 | (2:3:2Ac dBG | !>!e6- | e3 A2 B |"^rit." c3- c2 d | e3 F2 z | %39
w: O- ver- head,|o- ver- head|Rush- es life in a|race|_ As the|clouds, _ the|clouds chase;|
 z6 | z6 | z2 !fermata!z!p! F2 F | B6- | B3 A2 A | A3 G2 G | G3 =F2 A, | G,6 | z6 | %48
w: ||And we|go,|_ And we|drop like the|fruits of the|tree,||
"^slower." z2 z!p!!<(! (G!<)!A)_B |!>(! A6-!>)! | A z z z2 z | z6 | z6 |!pp! z6 | E3 B,3 | G6- | %56
w: E- * ven|we,|_||||E- ven|so.|
 G6 |] %57
w: _|
V:2
 ([DBd]3 [E_B^c]3 | [DAd]3 [DA]2) .[B,B] | ([CAc]3 [D_A=B]3 | [CEc]3 [G,EG]2) .[A,A] | %4
 ([B,^DB]3 [F,DF]2) .[G,G] | ([A,CA]3 [CE]2) .[F,F] | (.[G,E-G-]3 [G,EG]3) | z6 | %8
 ([DBd]3 [E_B^c]3 | [DAd]3 [DA]2) .[B,B] | [CAc]3 [D_A=B]3 | [CEc]3 [G,EG]2 .[A,A] | %12
 !tenuto![B,GB]3 !tenuto![A,^DB]3 | [G,E]2 z2 E/G/B/e/ | (!>![Beg]3 [cef]2) z | %15
 (!>![Beg]3 [Ace]2) z | (!>![Beg]3 [cef]2) z | (!>![Beg]3 [Ace]2) z | (!>![Beg]3 [cef]2) z | %19
 (!>![Beg]3 [Ace]2) z | ([Beg]3 [GB^c]2) z | (!>![FBd]3 [DF]2) z | ([=A,E-F-]3 [^A,EF]2) z | %23
!<(! [^DF]6!<)! | [=D=FB]2 z z3 | z6 | [EAc]3 z2 z | z2 z[K:bass] ([E,A,C]3 | %28
 [G,CE]3[K:treble] [A,C=F]3 | [G,CG]3 [A,=FA]3) |!<(! ([CEGc]3!<)! [Dcd]3 | [EGce]3 [GBdg]3) | %32
 ([ege']3 [Ggb]2) z | ([cec']3 [GBdg]2) z | ([Acec']3 [DBd]2) z | !>![EGe]>cE/c/ !>![^Fe^f]>cF/c/ | %36
 !>![Geg]>eG/e/ !>![A=fa]>fA/f/ | !>![cgc']>gc/g/ !>![ege']>ge/g/ | !>![e^ae']2 z (G>^A^c/g/) | %39
 (f>dB/F/) (E>^A^c/e/) | (d>BF/D/ B,>D^E/B/) | .[^A,^CF]2 !fermata!z z2 z | z3 (([DB-d]3 | %43
 [=CB=c]2)) z (([CA-c]3 | [B,AB]2)) z (([CA-c]3 | [A,GA]2)) z ([A,=FA]3 | ([E,CE]3) [G,A,_E]3) | %47
 z6 | ([DBd]3 [E_B^c]3) | [DAd]3 [DA]2 .[B,B] | [CAc]3 [D_AB]3 | [CEGc]3 [CEG]2 .[A,A] | %52
 ([B,^DB]3 [CEA]3 | [B,GB]3 [B,E]2) z | z6 | z2 z [G,A,_E]3 | (([_E,A,C]3 [B,,B,D]2)) z |] %57
V:3
 x6 | x6 | x6 | x6 | x6 | x6 | x6 | x6 | x6 | x6 | x6 | x6 | x6 | x6 | x6 | x6 | x6 | x6 | x6 | %19
 x6 | x6 | x6 | x6 | (B,3 =C2 B,) | x6 | x6 | x6 | x3[K:bass] x3 | x3[K:treble] x3 | x6 | x6 | x6 | %32
 x6 | x6 | x6 | x6 | x6 | x6 | x6 | x6 | x6 | x6 | x6 | x6 | x6 | x6 | x6 | x6 | x6 | x6 | x6 | %51
 x6 | x6 | x6 | x6 | x6 | x6 |] %57
V:4
!p!!<(! (G,,>D,G,/!<)!A,/!>(! _B,>G,E,/!>)!^C,/) |!<(! (F,,>D,F,/!<)!G,/!>(! A,>F,D,/!>)!A,,/) | %2
!<(! (=F,,>C,=F,/!<)!G,/!>(! _A,>F,D,/!>)!B,,/) |!<(! (C,,>G,,C,/!<)!D,/!>(! E,>C,A,,/!>)!^F,,/) | %4
"^dim." (B,,,>F,,B,,/^C,/ ^D,2) z | (A,,,>E,,A,,/B,,/ [C,E,]2) z | %6
 (E,,,>B,,,E,,/F,,/!<(! G,,/F,,/E,,/G,,/B,,/!<)!E,/) | !>!B,3- B,2 z | %8
!<(! (G,,>D,G,/!<)!A,/!>(! _B,>G,E,/!>)!^C,/) |!<(! (F,,>D,F,/!<)!G,/!>(! A,>F,D,/!>)!A,,/) | %10
!<(! (=F,,>C,=F,/!<)!G,/!>(! _A,>F,D,/!>)!B,,/) | (C,,>!<(!G,,C,/!<)!D,/!>(! E,>C,!>)!A,,/F,,/) | %12
 (B,,,>!<(!B,,E,/!<)!G,/!>(! F,>^D,!>)!B,,/B,,,/) | (E,,>B,,!<(!E,/F,/!<)!G,/B,/ x2) | %14
!mf! (!>![B,EG]3 [CEF]2) z | (!>![B,EG]3 [A,CE]2) z |!p! (!>![B,EG]3 [CEF]2) z | %17
 (!>![B,EG]3 [A,CE]2) z | (!>![B,EG]3 [CEF]2) z | (!>![B,EG]3 [A,CE]2) z |!<(! (E,,6!<)! | %21
!>(! D,,6)!>)! | (^C,,3 =C,,2) z |!<(! (B,,,3 A,,,2!<)! B,,,) | ^G,,,2 z z2 z | z6 | %26
!p! [A,,,A,,]3 z2 z | z2 z!p! (A,,3 | G,,3"^poco cresc." =F,,3 | E,,3 D,,3) | %30
"^cresc. molto"!<(! (C,,>G,,C,/D,/)!<)! (=F,>C,A,,/=F,,/) | (C,,>G,,C,/E,/) (=F,>D,B,,/G,,/) | %32
!f! (C,,>G,,C,/E,/) (=F,>D,B,,/G,,/) | (C,,>G,,C,/E,/) (=F,>D,B,,/G,,/) | %34
 (C,,>A,,C,/E,/) (=F,>D,B,,/G,,/) |"^sempre cresc." !>![C,,C,]>G,C/C,/ !>![A,,,A,,]>E,A,/E,/ | %36
 !>![G,,,G,,]>G,C/C,/ !>![^F,,,^F,,]>A,C/C,/ | %37
"^rit." !>![E,,,E,,]>C,E,/C,/ !>![C,,,C,,]>G,,E,/C,/ | %38
!ff! ([^F,,,^F,,]>F,^A,/^C/) (E>"^dim."CA,/E,/) | (D,>F,B,/D/) (^C>^A,G,/^C,/) | %40
 (B,,>D,F,/B,/ D,>B,,^A,,/D,,/) | .[F,,,F,,]2 !fermata!z z2 z | z2 z!p! z .B,,,.B,,, | %43
 z .B,,,.B,,, z .B,,,.B,,, | z .B,,,.B,,, z .B,,,.B,,, | z"^dim." .B,,,.B,,, z .B,,,.B,,, | %46
 z .C,,.C,, z .C,,.C,, | z6 |!pp! (G,,>D,G,/A,/ _B,>G,E,/^C,/) | (F,,>D,F,/G,/ A,2) z | %50
 (=F,,>C,=F,/G,/ _A,>F,D,/B,,/) | (C,,>G,,C,/D,/ E,>C,A,,/E,,/) | %52
"^dim." (B,,,>F,,B,,/^D,/ [F,,C,E,]3) | ([E,,,E,,]>B,,E,/F,/ G,2) z | z6 | z2!pp! z [C,,C,]3 | %56
 [G,,,G,,]3- [G,,,G,,]2 z |] %57
V:5
 x6 | F,,2 x x3 | =F,,2 x x3 | C,,2 x x3 | B,,,2 x x3 | A,,,2 x x3 | E,,,2 x x3 | x6 | G,,3 x3 | %9
 F,,2 x x3 | =F,,2 x x3 | C,,2 x x3 | B,,,2 x x3 | E,,2 x x3 | x6 | x6 | x6 | x6 | x6 | x6 | x6 | %21
 x6 | x6 | x6 | x6 | x6 | x6 | x6 | x6 | x6 | x3 [A,C]3 | C,,3 [G,B,D]3 | x3 [G,B,D]2 z | %33
 x3 [G,B,D]2 z | C,,3 [G,B,D]2 z | x6 | x6 | x6 | x6 | x6 | x6 | x6 | x6 | x6 | x6 | x6 | x6 | x6 | %48
 x6 | F,,3 x3 | x6 | x6 | x6 | x6 | x6 | x6 | x6 |] %57

